X:144
T: Morgen mu ich fort von hier (2-35), S. 92f
N: K1119
O: Luxemburg
S: KINTZELE, Guillaume: An der Ucht, Bd. 2, Luxemburg 1927]
N: in der Quelle mit einer 2. Stimme versehen
R: Abschiedslied]
M: 3/4
L: 1/16
K: D
 | A6F2B2A2 | A3GF4z4 |
E2F2G2B2A2G2 | G4F4z4 |
A6F2B2A2 | A3GF4z4 |
E2A2c3BA2^G2 | B4A4z4 |
G6F2E2D2 | C3DE4z4 |
B6A2G2F2 | E3FG4z4 |
A6F2G2A2 | B2c2e2d2c2B2 |
A6GFG2E2 | E4D4z4

@@@ Tune index: 8198
